svg/black/mtl.svg

<svg xmlns="http://www.w3.org/2000/svg" width="32" height="32" viewBox="0 0 32 32">
  <path d="M16,32 C7.163444,32 0,24.836556 0,16 C0,7.163444 7.163444,0 16,0 C24.836556,0 32,7.163444 32,16 C32,24.836556 24.836556,32 16,32 Z M8,9 L8,23 L9,23 L9,9 L8,9 Z M13,12 L13,21 L14,21 L14,12 L13,12 Z M18,14 L18,19 L19,19 L19,14 L18,14 Z M23,9 L23,23 L24,23 L24,9 L23,9 Z"/>
</svg>

<svg xmlns="http://www.w3.org/2000/svg" width="32" height="32"><path d="M16 32C7.163 32 0 24.837 0 16S7.163 0 16 0s16 7.163 16 16-7.163 16-16 16zM8 9v14h1V9H8zm5 3v9h1v-9h-1zm5 2v5h1v-5h-1zm5-5v14h1V9h-1z"/></svg>
